X:1
T:Title
%%score { ( 1 4 ) | ( 2 3 ) }
L:1/8
M:4/4
K:G
V:1 treble nm="Grand Piano"
V:4 treble 
V:2 bass 
V:3 bass 
V:1
 z4 z2[Q:1/4=100] [B,G]>[CA] | [DB]3 [DB] [Ec][DB][CA][B,G] | [DF]2 E2 z2 D>G | A3 A GF[G,DE]D | %4
[M:3/4] [DB]6 |[M:1/4] [B,G]>[CA] |[M:4/4] [DB]3 [DB] [Ec][DB][CA]G | %7
 [G,DF]2 [G,CE]2 z2 [G,B,D]>[B,DG] | [CFA]3 [B,D] [DGB]2 [CFA]2 |[M:3/4] [B,G]6 |[M:1/4] B>c | %11
[M:4/4] d4 z4 | c4 z4 | B2 B>A G<G [FA]B |[M:3/4] [DFA]6 |[M:1/4] B>c |[M:4/4] d4 z4 | %17
[M:9/8] [Ec]3- [Ec] [CE]2- [CE][CEA]>[CEA] |[M:4/4] [B,DG]2 [A,DF]2 [DGB]2 [CFA]2 | %19
[M:3/4] [B,G]6 |] %20
V:2
 z4 z2 [G,,G,]>[G,,G,] | [G,,G,]3 [G,,G,] [G,,G,]2 [G,,G,]2 | %2
 [C,G,]2 [C,G,C]2 z2 [D,G,B,]>[D,B,D] | [D,CD]3 [D,CD] [D,D]-[D,A,D] z F, |[M:3/4] [G,,G,]6 | %5
[M:1/4] [G,,G,]>[G,,G,] |[M:4/4] [G,,G,]3 [G,,G,] [G,,G,]2 z B, | C,2 C,2 z2 D,>D, | %8
 D,3 D, D,2 D,2 |[M:3/4] G,,6 |[M:1/4] G,>A, |[M:4/4] B,4 z4 | A,4 z4 | %13
 [G,DG]2 [G,D]>[G,CD] [G,B,D]<[G,B,D] z G |[M:3/4][K:bass] D,6 |[M:1/4] G,>A, |[M:4/4] B,4 z4 | %17
[M:9/8] G,6- G, z z |[M:4/4] D,2 D,2 D,2 D,2 |[M:3/4] G,,6 |] %20
V:3
 x8 | x8 | x8 | z4 .B,2 D,2 |[M:3/4] x6 |[M:1/4] x2 |[M:4/4] z4 z2 [G,,G,]2 | x8 | x8 |[M:3/4] x6 | %10
[M:1/4] x2 |[M:4/4] z2 G,,>G,, [G,,G,]2 F,>G, | z2 D,>D, [D,F,D]2 [B,,G,]>[D,D] | z4 z2 [D,D]2 | %14
[M:3/4][K:bass] x6 |[M:1/4] x2 |[M:4/4] z2 G,,>G,, [G,,G,]2 [D,F,D]>[G,D] | %17
[M:9/8] C,2 C,- C, C,2- C,C,>C, |[M:4/4] x8 |[M:3/4] x6 |] %20
V:4
 x8 | x8 | x8 | x8 |[M:3/4] x6 |[M:1/4] x2 |[M:4/4] x8 | x8 | x8 |[M:3/4] x6 |[M:1/4] x2 | %11
[M:4/4] z2 G>G [DB]2 A>B | z2 F>F A2 [DG]>[FA] | x8 |[M:3/4] x6 |[M:1/4] x2 | %16
[M:4/4] z2 G>G [DB]2 A>B |[M:9/8] x9 |[M:4/4] x8 |[M:3/4] x6 |] %20

